icons/jo.svg

<?xml version="1.0" ?>
<svg xmlns="http://www.w3.org/2000/svg" xmlns:ev="http://www.w3.org/2001/xml-events" xmlns:xlink="http://www.w3.org/1999/xlink" baseProfile="full" height="600px" version="1.1" viewBox="-343.3800399029968 -1028.3208927221083 10931.610974750452 12288.690469246289" width="534px">
	<defs/>
	<path d="M 7705.0,9692.0 C 7221.0,9390.0 6510.0,8946.0 6125.0,8703.0 C 5740.0,8461.0 5254.0,8158.0 5045.0,8030.0 C 4836.0,7902.0 4629.0,7768.0 4586.0,7733.0 C 4497.0,7662.0 4492.0,7661.0 4359.0,7686.0 C 4314.0,7694.0 4268.0,7699.0 4257.0,7696.0 C 4244.0,7693.0 4226.0,7700.0 4208.0,7716.0 C 4181.0,7738.0 4170.0,7740.0 4072.0,7740.0 C 3952.0,7741.0 3839.0,7759.0 3813.0,7782.0 C 3786.0,7805.0 3752.0,7813.0 3679.0,7812.0 C 3624.0,7811.0 3611.0,7814.0 3604.0,7829.0 C 3586.0,7866.0 3433.0,7998.0 3335.0,8062.0 C 3280.0,8097.0 3229.0,8139.0 3221.0,8153.0 C 3208.0,8177.0 3203.0,8179.0 3166.0,8173.0 C 3143.0,8170.0 3124.0,8166.0 3122.0,8165.0 C 3121.0,8164.0 3103.0,8168.0 3082.0,8175.0 C 3061.0,8183.0 3024.0,8186.0 2994.0,8183.0 L 2943.0,8178.0 L 2936.0,8221.0 C 2929.0,8266.0 2889.0,8343.0 2867.0,8357.0 C 2859.0,8361.0 2849.0,8392.0 2844.0,8425.0 L 2835.0,8485.0 L 2790.0,8498.0 C 2711.0,8521.0 2696.0,8530.0 2708.0,8542.0 C 2726.0,8560.0 2722.0,8580.0 2702.0,8580.0 C 2685.0,8580.0 2635.0,8620.0 2629.0,8639.0 C 2624.0,8653.0 2471.0,8681.0 2419.0,8678.0 C 2379.0,8676.0 2361.0,8688.0 2360.0,8718.0 C 2360.0,8726.0 2344.0,8730.0 2312.0,8730.0 C 2273.0,8730.0 2259.0,8725.0 2239.0,8704.0 C 2226.0,8690.0 2191.0,8667.0 2162.0,8654.0 C 2132.0,8641.0 2095.0,8619.0 2078.0,8605.0 C 2044.0,8576.0 2019.0,8574.0 1961.0,8595.0 L 1920.0,8609.0 L 1935.0,8580.0 C 1958.0,8536.0 1954.0,8515.0 1915.0,8473.0 C 1871.0,8426.0 1864.0,8405.0 1883.0,8377.0 C 1890.0,8365.0 1900.0,8331.0 1903.0,8302.0 C 1909.0,8254.0 1907.0,8248.0 1886.0,8239.0 C 1870.0,8231.0 1864.0,8222.0 1867.0,8206.0 C 1870.0,8190.0 1865.0,8181.0 1849.0,8174.0 L 1827.0,8164.0 L 1859.0,8127.0 C 1891.0,8092.0 1891.0,8091.0 1874.0,8065.0 C 1859.0,8042.0 1858.0,8033.0 1868.0,8007.0 C 1878.0,7980.0 1877.0,7973.0 1860.0,7955.0 C 1848.0,7942.0 1840.0,7920.0 1840.0,7898.0 C 1840.0,7878.0 1836.0,7850.0 1831.0,7836.0 C 1824.0,7821.0 1825.0,7799.0 1831.0,7778.0 C 1836.0,7760.0 1845.0,7661.0 1850.0,7559.0 C 1860.0,7383.0 1859.0,7371.0 1840.0,7329.0 C 1829.0,7303.0 1820.0,7263.0 1820.0,7232.0 C 1820.0,7194.0 1812.0,7163.0 1790.0,7120.0 C 1756.0,7052.0 1750.0,6978.0 1776.0,6949.0 C 1790.0,6933.0 1790.0,6929.0 1775.0,6899.0 C 1759.0,6869.0 1759.0,6865.0 1774.0,6838.0 C 1787.0,6817.0 1790.0,6798.0 1784.0,6762.0 C 1781.0,6736.0 1773.0,6709.0 1767.0,6702.0 C 1754.0,6685.0 1775.0,6583.0 1796.0,6559.0 C 1807.0,6547.0 1810.0,6534.0 1805.0,6523.0 C 1793.0,6495.0 1792.0,6421.0 1803.0,6363.0 C 1811.0,6320.0 1817.0,6311.0 1839.0,6306.0 C 1853.0,6303.0 1874.0,6293.0 1885.0,6285.0 C 1905.0,6269.0 1905.0,6267.0 1859.0,6044.0 C 1810.0,5801.0 1809.0,5760.0 1846.0,5648.0 C 1858.0,5612.0 1859.0,5592.0 1851.0,5563.0 C 1823.0,5455.0 1810.0,5378.0 1810.0,5315.0 C 1810.0,5272.0 1804.0,5235.0 1795.0,5220.0 C 1787.0,5206.0 1776.0,5183.0 1769.0,5168.0 C 1760.0,5144.0 1754.0,5141.0 1732.0,5147.0 C 1717.0,5150.0 1701.0,5158.0 1697.0,5164.0 C 1689.0,5175.0 1695.0,5234.0 1706.0,5264.0 C 1709.0,5273.0 1707.0,5280.0 1701.0,5280.0 C 1687.0,5280.0 1648.0,5237.0 1618.0,5190.0 C 1606.0,5171.0 1588.0,5145.0 1577.0,5132.0 L 1556.0,5110.0 L 1535.0,5130.0 L 1514.0,5150.0 L 1490.0,5101.0 L 1467.0,5052.0 L 1515.0,4968.0 C 1541.0,4922.0 1576.0,4871.0 1593.0,4853.0 L 1623.0,4821.0 L 1606.0,4719.0 C 1592.0,4632.0 1585.0,4612.0 1556.0,4576.0 C 1498.0,4505.0 1490.0,4476.0 1508.0,4391.0 L 1524.0,4318.0 L 1479.0,4276.0 C 1454.0,4254.0 1420.0,4223.0 1403.0,4209.0 C 1376.0,4187.0 1371.0,4175.0 1365.0,4116.0 C 1361.0,4079.0 1360.0,4034.0 1363.0,4015.0 C 1368.0,3987.0 1365.0,3980.0 1350.0,3975.0 C 1320.0,3966.0 1270.0,3896.0 1270.0,3864.0 C 1269.0,3808.0 1242.0,3714.0 1211.0,3660.0 C 1194.0,3630.0 1180.0,3597.0 1180.0,3587.0 C 1180.0,3578.0 1159.0,3539.0 1134.0,3501.0 C 1093.0,3438.0 1085.0,3418.0 1060.0,3295.0 C 1028.0,3141.0 1004.0,3063.0 982.0,3038.0 C 965.0,3018.0 969.0,3003.0 1028.0,2886.0 L 1062.0,2817.0 L 1026.0,2786.0 C 992.0,2756.0 990.0,2751.0 979.0,2660.0 C 964.0,2544.0 963.0,2560.0 995.0,2412.0 C 1009.0,2345.0 1018.0,2284.0 1013.0,2277.0 C 1009.0,2271.0 977.0,2225.0 941.0,2175.0 C 885.0,2098.0 871.0,2069.0 843.0,1975.0 C 811.0,1871.0 810.0,1860.0 816.0,1760.0 L 822.0,1655.0 L 785.0,1590.0 C 752.0,1532.0 749.0,1519.0 754.0,1477.0 C 758.0,1442.0 754.0,1414.0 740.0,1377.0 C 724.0,1336.0 720.0,1300.0 720.0,1204.0 L 720.0,1083.0 L 670.0,1029.0 C 606.0,960.0 591.0,902.0 622.0,852.0 C 646.0,813.0 642.0,759.0 610.0,666.0 C 598.0,630.0 593.0,598.0 597.0,574.0 C 602.0,546.0 599.0,534.0 586.0,524.0 C 571.0,514.0 569.0,503.0 575.0,461.0 L 582.0,411.0 L 633.0,401.0 C 1001.0,329.0 2859.0,0.0 2899.0,0.0 C 2904.0,0.0 3110.0,169.0 3357.0,375.0 L 3805.0,749.0 L 4065.0,1207.0 L 4325.0,1665.0 L 5108.0,1826.0 C 5538.0,1914.0 5891.0,1988.0 5893.0,1991.0 C 5895.0,1993.0 5973.0,2174.0 6066.0,2393.0 L 6235.0,2792.0 L 6582.0,2998.0 C 6773.0,3112.0 6929.0,3207.0 6930.0,3210.0 C 6930.0,3213.0 6464.0,3766.0 5894.0,4440.0 C 5019.0,5474.0 4861.0,5666.0 4877.0,5672.0 C 4887.0,5676.0 5127.0,5745.0 5410.0,5826.0 C 5693.0,5906.0 6242.0,6063.0 6630.0,6175.0 C 7018.0,6287.0 7713.0,6485.0 8175.0,6615.0 C 8637.0,6745.0 9020.0,6855.0 9026.0,6858.0 C 9033.0,6862.0 9165.0,6984.0 9321.0,7130.0 C 9476.0,7276.0 9619.0,7409.0 9638.0,7425.0 L 9673.0,7456.0 L 9630.0,7595.0 C 9606.0,7672.0 9584.0,7738.0 9581.0,7742.0 C 9578.0,7746.0 9476.0,7722.0 9355.0,7690.0 C 9234.0,7657.0 9132.0,7630.0 9128.0,7630.0 C 9124.0,7630.0 9118.0,7650.0 9115.0,7674.0 C 9111.0,7699.0 9086.0,7793.0 9060.0,7885.0 C 9021.0,8020.0 9015.0,8052.0 9026.0,8057.0 C 9034.0,8060.0 9080.0,8075.0 9128.0,8089.0 C 9201.0,8112.0 9214.0,8120.0 9212.0,8135.0 C 9192.0,8241.0 8609.0,10210.0 8591.0,10232.0 C 8587.0,10236.0 8189.0,9993.0 7705.0,9692.0" fill="pink"/>
</svg>

<?xml version="1.0" standalone="no"?>
<!DOCTYPE svg PUBLIC "-//W3C//DTD SVG 20010904//EN"
 "http://www.w3.org/TR/2001/REC-SVG-20010904/DTD/svg10.dtd">
<svg version="1.0" xmlns="http://www.w3.org/2000/svg"
 width="1024.000000pt" height="1024.000000pt" viewBox="0 0 1024.000000 1024.000000"
 preserveAspectRatio="xMidYMid meet">
<metadata>
Created by potrace 1.10, written by Peter Selinger 2001-2011
</metadata>
<g transform="translate(0.000000,1024.000000) scale(0.100000,-0.100000)"
fill="#000000" stroke="none">
<path d="M7705 9692 c-484 -302 -1195 -746 -1580 -989 -385 -242 -871 -545
-1080 -673 -209 -128 -416 -262 -459 -297 -89 -71 -94 -72 -227 -47 -45 8 -91
13 -102 10 -13 -3 -31 4 -49 20 -27 22 -38 24 -136 24 -120 1 -233 19 -259 42
-27 23 -61 31 -134 30 -55 -1 -68 2 -75 17 -18 37 -171 169 -269 233 -55 35
-106 77 -114 91 -13 24 -18 26 -55 20 -23 -3 -42 -7 -44 -8 -1 -1 -19 3 -40
10 -21 8 -58 11 -88 8 l-51 -5 -7 43 c-7 45 -47 122 -69 136 -8 4 -18 35 -23
68 l-9 60 -45 13 c-79 23 -94 32 -82 44 18 18 14 38 -6 38 -17 0 -67 40 -73
59 -5 14 -158 42 -210 39 -40 -2 -58 10 -59 40 0 8 -16 12 -48 12 -39 0 -53
-5 -73 -26 -13 -14 -48 -37 -77 -50 -30 -13 -67 -35 -84 -49 -34 -29 -59 -31
-117 -10 l-41 14 15 -29 c23 -44 19 -65 -20 -107 -44 -47 -51 -68 -32 -96 7
-12 17 -46 20 -75 6 -48 4 -54 -17 -63 -16 -8 -22 -17 -19 -33 3 -16 -2 -25
-18 -32 l-22 -10 32 -37 c32 -35 32 -36 15 -62 -15 -23 -16 -32 -6 -58 10 -27
9 -34 -8 -52 -12 -13 -20 -35 -20 -57 0 -20 -4 -48 -9 -62 -7 -15 -6 -37 0
-58 5 -18 14 -117 19 -219 10 -176 9 -188 -10 -230 -11 -26 -20 -66 -20 -97 0
-38 -8 -69 -30 -112 -34 -68 -40 -142 -14 -171 14 -16 14 -20 -1 -50 -16 -30
-16 -34 -1 -61 13 -21 16 -40 10 -76 -3 -26 -11 -53 -17 -60 -13 -17 8 -119
29 -143 11 -12 14 -25 9 -36 -12 -28 -13 -102 -2 -160 8 -43 14 -52 36 -57 14
-3 35 -13 46 -21 20 -16 20 -18 -26 -241 -49 -243 -50 -284 -13 -396 12 -36
13 -56 5 -85 -28 -108 -41 -185 -41 -248 0 -43 -6 -80 -15 -95 -8 -14 -19 -37
-26 -52 -9 -24 -15 -27 -37 -21 -15 3 -31 11 -35 17 -8 11 -2 70 9 100 3 9 1
16 -5 16 -14 0 -53 -43 -83 -90 -12 -19 -30 -45 -41 -58 l-21 -22 -21 20 -21
20 -24 -49 -23 -49 48 -84 c26 -46 61 -97 78 -115 l30 -32 -17 -102 c-14 -87
-21 -107 -50 -143 -58 -71 -66 -100 -48 -185 l16 -73 -45 -42 c-25 -22 -59
-53 -76 -67 -27 -22 -32 -34 -38 -93 -4 -37 -5 -82 -2 -101 5 -28 2 -35 -13
-40 -30 -9 -80 -79 -80 -111 -1 -56 -28 -150 -59 -204 -17 -30 -31 -63 -31
-73 0 -9 -21 -48 -46 -86 -41 -63 -49 -83 -74 -206 -32 -154 -56 -232 -78
-257 -17 -20 -13 -35 46 -152 l34 -69 -36 -31 c-34 -30 -36 -35 -47 -126 -15
-116 -16 -100 16 -248 14 -67 23 -128 18 -135 -4 -6 -36 -52 -72 -102 -56 -77
-70 -106 -98 -200 -32 -104 -33 -115 -27 -215 l6 -105 -37 -65 c-33 -58 -36
-71 -31 -113 4 -35 0 -63 -14 -100 -16 -41 -20 -77 -20 -173 l0 -121 -50 -54
c-64 -69 -79 -127 -48 -177 24 -39 20 -93 -12 -186 -12 -36 -17 -68 -13 -92 5
-28 2 -40 -11 -50 -15 -10 -17 -21 -11 -63 l7 -50 51 -10 c368 -72 2226 -401
2266 -401 5 0 211 169 458 375 l448 374 260 458 260 458 783 161 c430 88 783
162 785 165 2 2 80 183 173 402 l169 399 347 206 c191 114 347 209 348 212 0
3 -466 556 -1036 1230 -875 1034 -1033 1226 -1017 1232 10 4 250 73 533 154
283 80 832 237 1220 349 388 112 1083 310 1545 440 462 130 845 240 851 243 7
4 139 126 295 272 155 146 298 279 317 295 l35 31 -43 139 c-24 77 -46 143
-49 147 -3 4 -105 -20 -226 -52 -121 -33 -223 -60 -227 -60 -4 0 -10 20 -13
44 -4 25 -29 119 -55 211 -39 135 -45 167 -34 172 8 3 54 18 102 32 73 23 86
31 84 46 -20 106 -603 2075 -621 2097 -4 4 -402 -239 -886 -540z"/>
</g>
</svg>
